X:1
T:Haec dies
T:Caspar Ett
T:Ps 118, 24
T:Haec dies
T:CPDL   —   Creative Commons Attribution Non Commercial 3.0
T:CPDL   —   Creative Commons Attribution Non Commercial 3.0
T:CPDL   —   Creative Commons Attribution Non Commercial 3.0
T:CPDL   —   Creative Commons Attribution Non Commercial 3.0
C:Caspar Ett
Z:CPDL   —   Creative Commons Attribution Non Commercial 3.0
%%score [ 1 2 ( 3 4 ) 5 ]
L:1/8
M:3/4
K:F
V:1 treble nm="Sopran"
V:2 treble nm="Alt"
V:3 treble-8 nm="Tenor"
V:4 treble-8 
V:5 bass nm="Bass"
V:1
 c6 | c2 A2 F2 | (B2 c2) d2 | d>c c2 z2 | (c4 E2) | c4 E2 | F2 B2 A2 | A>G G2 e>e | f2 c2 B>A | %9
w: Haec|di- es quam|fe- * cit|Do- mi- nus,|haec _|di- es|quam fe- cit|Do- mi- nus. Al- le-|lu- ja, Al- le-|
 A2 G2 z2 | z6 | z6 | z4 c2 | fd =Bd BG | e2 c2 G2 | G2 G2 =B2 | c2 c2 c>c | f2 e2 d>d | (e4 d2) | %19
w: lu- ja!|||Lae-|te- * mur _ lae- *|te- mur, lae-|te- mur in|e- a. Al- le-|lu- ja, al- le-|lu- *|
 c4 z2 | c4 c2 | f2 e2 d>d | (e4 d2) | c6- | c4 z2 || c6 | c2 A2 F2 | (B2 c2) d2 | d>c c2 z2 | %29
w: ja,|al- le-|lu- ja, al- le-|lu- *|ja!|_|Haec|di- es quam|fe- * cit|Do- mi- nus,|
 (c4 E2) | c4 E2 | F2 B2 A2 | A>G G2 z2 | G2 c2 B2 | B>A A2 c>c | _e2 A2 B>d | d2 c2 z2 | z6 | %38
w: haec _|di- es|quam fe- cit|Do- mi- nus,|quam fe- cit|Do- mi- nus. Al- le-|lu- ja, Al- le-|lu- ja!||
 z4 c2 | fc Ac AF | E2 B2 B2 | A2 A2 A2 | G2 G2 G2 | A2 A2 c>c | B2 c2 d>d | c6 | A4 z2 | f4 A2 | %48
w: Lae-|te- * mur _ in _|e- a, lae-|te- mur, lae-|te- mur in|e- a. Al- le-|lu- ja, al- le-|lu-|ja,|al- le-|
 B2 c2 d>d | c6 | A2 F2 A2 | c6 | A2 F2 A2 | c6 | A6- | A2 z2 z2 |] %56
w: lu- ja, al- le-|lu-|ja, al- le-|lu-|ja, al- le-|lu-|ja!|_|
V:2
 C6 | C2 C2 C2 | (D2 F2) F2 | F>F F2 z2 | C6 | C4 C2 | C2 E2 F2 | F>E E2 G>G | F2 F2 E>F | %9
w: ||||||||lu- ja, Al- le-|
 F2 E2 z2 | z6 | z4 G2 | cG EG EC | =B,2 F2 F2 | E2 E2 E2 | D2 D2 D2 | C2 E2 E>E | F2 G2 A>A | %18
w: lu- ja!||Lae-|te- * mur _ in _|e- a, *|||||
 (G4 F2) | E2 (C2 D2 | E2 F2) G2 | F2 G2 A>A | (G4 =B2) | G6- | G4 z2 || C6 | C2 C2 _E2 | %27
w: |ja, al- *|* * le-|lu- ja, al- le-|lu- *|ja!|_|||
 (D2 F2) F2 | F>F F2 z2 | C6 | C4 C2 | C2 E2 F2 | F>E E2 z2 | E2 G2 E2 | F>F F2 F>F | F2 F2 F>B | %36
w: |||||||||
 F2 F2 z2 | CC C2 C2 | C4 C2 | C2 C2 C2 | C2 C2 E2 | F2 F2 F2 | BG EG EC | F2 F2 F>F | F2 F2 F>F | %45
w: |Ex- sul- te- mus|et lae-|te- mur in|e- a, lae-|te- mur, lae-|te- * mur _ in _|e- a, Al- le-|lu- ja, al- le-|
 (F4 E2) | F4 z2 | z4 F>F | F2 F2 F>F | (F4 E2) | F4 z2 | F>F (G2 E2) | F4 z2 | %53
w: lu- *|ja,|al- le-|lu- ja, al- le-|lu- *|ja,|al- le- lu- *|ja,|
 [FA]>[FA] ([GB]2 [EG]2) | [CF]6- | [CF]2 z2 z2 |] %56
w: al- le- lu- *|ja,|_|
V:3
 A6 | A2 A2 A2 | (B2 A2) B2 | B>A A2 z2 | ([EG]4 [GB]2) | [EG]4 [GB]2 | A2 G2 F2 | c>c c2 c>c | %8
w: Haec|di- es quam|fe- * cit|Do- mi- nus,|haec _|di- es|quam fe- cit|Do- mi- nus. Al- le-|
 c2 c2 c>c | c2 c2 z2 | GG G2 G2 | G4 G2 | G2 G2 G2 | G2 G2 =B2 | c2 c2 c2 | fd =Bd BG | %16
w: lu- ja, Al- le-|lu- ja!|Ex- sul- te- mus|et lae-|te- mur in|e- a, lae-|te- mur, lae-|te- * mur _ in _|
 c2 c2 c>c | c2 c2 c>c | (c4 =B2) | c6- | c2 z2 c>c | c2 c2 c>c | (c4 f2) | e6- | e4 z2 || A6 | %26
w: e- a. Al- le-|lu- ja, al- le-|lu- *|ja,|_ al- le-|lu- ja, al- le-|lu- *|ja!|_|Haec|
 A2 A2 [Ac]2 | (B2 A2) B2 | B>A A2 z2 | ([EG]4 [GB]2) | [EG]4 [GB]2 | A2 G2 F2 | c>c c2 z2 | %33
w: di- es quam|fe- * cit|Do- mi- nus,|haec _|di- es|quam fe- cit|Do- mi- nus,|
 c2 c2 c2 | c>c c2 [Ac]>[Ac] | [Ac]2 [c_e]2 [Bd]>B | f2 F2 z2 | z4 cc | B2 B2 B2 | A2 A2 A2 | %40
w: quam fe- cit|Do- mi- nus. Al- le-|lu- ja, Al- le-|lu- ja!|Ex- sul-|te- mus, lae-|te- mur in|
 G2 G2 c2 | fc Ac AF | E2 B2 B2 | A2 c2 A>A | B2 A2 G>G | (A4 G2) | F2 [FA]2 [Ac]2 | %47
w: e- a, lae-|te- * mur, _ lae- *|te- mur in|e- a. Al- le-|lu- ja, al- le-|lu- *|ja, al- le-|
 [c_e]2 [Bd]2 c>c | B2 A2 G>G | (A4 [GB]2) | [Ac]4 z2 | [Ac]>[Ac] c4 | [Ac]4 z2 | c>c (G2 c2) | %54
w: lu- ja, al- le-|lu- ja, al- le-|lu- *|ja,|al- le- lu-|ja,|al- le- lu- *|
 A6- | A2 z2 z2 |] %56
w: ja!|_|
V:4
 x6 | x6 | x6 | x6 | x6 | x6 | x6 | x6 | x6 | x6 | x6 | x6 | x6 | x6 | x6 | x6 | x6 | x6 | x6 | %19
 x6 | x6 | x6 | x6 | x6 | x6 || x6 | x6 | x6 | x6 | x6 | x6 | x6 | x6 | x6 | x6 | x6 | x6 | x6 | %38
 x6 | x6 | x6 | x6 | x6 | x6 | x6 | x6 | x6 | x6 | x6 | x6 | x6 | x2 (B2 G2) | x6 | x6 | x6 | x6 |] %56
V:5
 F,6 | F,2 F,2 F,2 | F,4 F,2 | F,>F, F,2 z2 | C,6 | C,4 C,2 | C,2 C,2 C,2 | C,>C, C,2 B,>B, | %8
w: ||||||||
 A,2 A,2 G,>F, | C2 C,2 z2 | z4 G,G, | F,2 F,2 F,2 | E,2 E,2 E,2 | D,2 D,2 G,2 | CG, E,G, E,C, | %15
w: lu- ja, Al- le-|lu- ja!|Ex- sul-|te- mus, lae-|te- mur in|e- a, *||
 =B,,2 D,2 G,2 | E,2 G,2 _B,>B, | A,2 G,2 ^F,>F, | (G,4 G,,2) | C,2 (E,2 F,2 | G,2 A,2) B,2 | %21
w: ||||ja, al- *|* * le-|
 A,2 G,2 ^F,>F, | (G,4 G,,2) | C,6- | C,4 z2 || F,6 | F,2 F,2 F,2 | F,4 F,2 | F,>F, F,2 z2 | C,6 | %30
w: lu- ja, al- le-|lu- *|ja!|_||||||
 C,4 C,2 | C,2 C,2 C,2 | C,>C, C,2 z2 | C,2 E,2 C,2 | F,>F, F,2 F,>F, | F,2 F,2 F,>F, | %36
w: ||||||
 F,2 F,2 z2 | z6 | z6 | z4 F,2 | B,G, E,G, E,C, | A,2 F,2 C,2 | C,2 C,2 E,2 | F,2 F,2 _E,>E, | %44
w: |||Lae-|te- * mur _ in _|e- a, *|||
 D,2 C,2 =B,,>B,, | C,6 | F,,6 | z2 F,2 _E,2 | D,2 C,2 =B,,>B,, | C,6 | F,,4 z2 | C,>C, C,4 | %52
w: |||al- le-|lu- ja, al- le-|lu-|ja,|al- le- lu-|
 F,4 z2 | C,>C, C,4 | F,6- | F,2 z2 z2 |] %56
w: ja,|al- le- lu-|ja,|_|

